X: 727
M: C|
L: 1/8
K: A
E2 |\
|: e2 |\
fefg agfe | fedc B2cd | e2fe dcBA | G6 E2 |\

